!!!COM:	Josquin des Prez
!!!CDT:	~1450-1521/08/27
!!!OTL@@LAT:	O virgo prudentissima / Beata mater
!!!OTL2@@LAT: Audi virgo puerpera
!!!AGN:	Motet
!!!SCT:	NJE 24.9
!!!SCA:	New Josquin Edition 24.9
!!!voices:	6
**kern	**text	**kern	**text	**kern	**text	**kern	**text	**kern	**text	**kern	**text
*staff6	*staff6	*staff5	*staff5	*staff4	*staff4	*staff3	*staff3	*staff2	*staff2	*staff1	*staff1
*Ivox	*	*Ivox	*	*Ivox	*	*Ivox	*	*Ivox	*	*Ivox	*
*I"Bassus	*	*I"Tenor1	*	*I"Tenor2	*	*I"Altus2	*	*I"Altus1	*	*I"Superius	*
*I'B	*	*I'T1	*	*I'T2	*	*I'A2	*	*I'A1	*	*I'S	*
*>[A,B]	*>[A,B]	*>[A,B]	*>[A,B]	*>[A,B]	*>[A,B]	*>[A,B]	*>[A,B]	*>[A,B]	*>[A,B]	*>[A,B]	*>[A,B]
*>A	*>A	*>A	*>A	*>A	*>A	*>A	*>A	*>A	*>A	*>A	*>A
*clefF4	*	*clefGv2	*	*clefGv2	*	*clefGv2	*	*clefGv2	*	*clefG2	*
*k[b-]	*	*k[b-]	*	*k[]	*	*k[b-]	*	*k[b-]	*	*k[b-]	*
*M2/1	*	*M2/1	*	*M2/1	*	*M2/1	*	*M2/1	*	*M2/1	*
*met(C|)	*	*met(C|)	*	*met(C|)	*	*met(C|)	*	*met(C|)	*	*met(C|)	*
!!section: Prima pars: O virgo prudentissima
!!!OMD: Prima pars: O virgo prudentissima
=1-	=1-	=1-	=1-	=1-	=1-	=1-	=1-	=1-	=1-	=1-	=1-
!	!	!LO:TX:Z=12:X=-40:t=Canon at the upper fifth (T1-->T2, 2 breves)	!	!	!	!	!	!	!	!	!
0r	.	0r	.	0r	.	0r	.	1r	.	0g	O
.	.	.	.	.	.	.	.	[1G	O	.	.
=2	=2	=2	=2	=2	=2	=2	=2	=2	=2	=2	=2
0r	.	0r	.	0r	.	0r	.	1G]	.	1g	vir-
.	.	.	.	.	.	.	.	1G	vir-	1g	-go
=3	=3	=3	=3	=3	=3	=3	=3	=3	=3	=3	=3
0r	.	0r	.	0r	.	0G	O	1G	-go	1b-	pru-
.	.	.	.	.	.	.	.	1B-	pru-	1g	-den-
=4	=4	=4	=4	=4	=4	=4	=4	=4	=4	=4	=4
0r	.	0r	.	0r	.	1G	vir-	1G	-den-	1.b-	-tis-
.	.	.	.	.	.	1G	-go	[1B-	-tis-	.	.
.	.	.	.	.	.	.	.	.	.	2cc\	-si-
=5	=5	=5	=5	=5	=5	=5	=5	=5	=5	=5	=5
0GG	O	0r	.	0r	.	1B-	pru-	2B-\]	.	[0dd	-ma,
.	.	.	.	.	.	.	.	4A/	.	.	.
.	.	.	.	.	.	.	.	4G/	.	.	.
.	.	.	.	.	.	1G	-den-	2.B-\	.	.	.
.	.	.	.	.	.	.	.	4c\	.	.	.
=6	=6	=6	=6	=6	=6	=6	=6	=6	=6	=6	=6
1GG	vir-	0r	.	0r	.	1.B-	-tis-	2d\	.	0dd]	.
.	.	.	.	.	.	.	.	1G	.	.	.
1GG	-go	.	.	.	.	.	.	.	.	.	.
.	.	.	.	.	.	2c\	-si-	4F/	-si-	.	.
.	.	.	.	.	.	.	.	4E/	.	.	.
=7	=7	=7	=7	=7	=7	=7	=7	=7	=7	=7	=7
1BB-	pru-	0r	.	0r	.	1d	-ma,	0D	-ma,	0r	.
1GG	-den-	.	.	.	.	2r	.	.	.	.	.
.	.	.	.	.	.	[2d\	pru-	.	.	.	.
=8	=8	=8	=8	=8	=8	=8	=8	=8	=8	=8	=8
1.BB-	-tis-	0r	.	0r	.	4d\]	.	0d	.	0r	.
.	.	.	.	.	.	4c\	-den-	.	.	.	.
.	.	.	.	.	.	1B-	-tis-	.	.	.	.
2C/	-si-	.	.	.	.	4A/	-si-	.	.	.	.
.	.	.	.	.	.	4G/	.	.	.	.	.
=9	=9	=9	=9	=9	=9	=9	=9	=9	=9	=9	=9
[0D	-ma,	0r	.	0r	.	0F	-ma,	1r	.	1r	.
.	.	.	.	.	.	.	.	1f	Quam	1a	Quam
=10	=10	=10	=10	=10	=10	=10	=10	=10	=10	=10	=10
0D]	.	0r	.	0r	.	0r	.	1f	ce-	1a	ce-
.	.	.	.	.	.	.	.	1f	-lo	1a	-lo
=11	=11	=11	=11	=11	=11	=11	=11	=11	=11	=11	=11
0r	.	0r	.	0r	.	0r	.	1g	mis-	1b-	mis-
.	.	.	.	.	.	.	.	2f\	-sus	2a/	-sus
.	.	.	.	.	.	.	.	2g\	Ga-	2b-\	Ga-
=12	=12	=12	=12	=12	=12	=12	=12	=12	=12	=12	=12
0r	.	0r	.	0r	.	0r	.	2f\	-bri-	2a/	-bri-
.	.	.	.	.	.	.	.	1g	-el	1b-	-el
.	.	.	.	.	.	.	.	4f\	.	4a/	.
.	.	.	.	.	.	.	.	4e\	.	4g/	.
=13	=13	=13	=13	=13	=13	=13	=13	=13	=13	=13	=13
1r	.	0r	.	0r	.	0d	Quam	0f	.	0a	.
1D	Quam	.	.	.	.	.	.	.	.	.	.
=14	=14	=14	=14	=14	=14	=14	=14	=14	=14	=14	=14
1F	ce-	0r	.	0r	.	1c	ce-	0r	.	0r	.
1F	-lo	.	.	.	.	1A	-lo	.	.	.	.
=15	=15	=15	=15	=15	=15	=15	=15	=15	=15	=15	=15
1G	mis-	0r	.	0r	.	1B-	mis-	0r	.	0r	.
2F\	-sus	.	.	.	.	2A/	-sus	.	.	.	.
2G\	Ga-	.	.	.	.	2B-\	Ga-	.	.	.	.
=16	=16	=16	=16	=16	=16	=16	=16	=16	=16	=16	=16
2F\	-bri-	0r	.	0r	.	2A/	-bri-	0r	.	0r	.
1G	-el	.	.	.	.	1B-	-el	.	.	.	.
4F\	.	.	.	.	.	4A/	.	.	.	.	.
4E\	.	.	.	.	.	4G/	.	.	.	.	.
=17	=17	=17	=17	=17	=17	=17	=17	=17	=17	=17	=17
0D	.	0r	.	0r	.	0A	.	1r	.	1r	.
.	.	.	.	.	.	.	.	1f	Su-	1a	Su-
=18	=18	=18	=18	=18	=18	=18	=18	=18	=18	=18	=18
0r	.	0r	.	0r	.	0r	.	1g	-pre-	1b-	-pre-
.	.	.	.	.	.	.	.	2f\	-mi	2a/	-mi
.	.	.	.	.	.	.	.	[2g\	re-	[2b-\	re-
=19	=19	=19	=19	=19	=19	=19	=19	=19	=19	=19	=19
0r	.	0r	.	0r	.	0r	.	2g\]	.	2b-\]	.
.	.	.	.	.	.	.	.	4f\	.	4a/	.
.	.	.	.	.	.	.	.	4e\	.	4g/	.
.	.	.	.	.	.	.	.	2d\	.	2b-\	.
.	.	.	.	.	.	.	.	2f\	-gis	2a/	-gis
=20	=20	=20	=20	=20	=20	=20	=20	=20	=20	=20	=20
0r	.	0r	.	0r	.	1r	.	2e\	nun-	2g/	nun-
.	.	.	.	.	.	.	.	1d	.	2f/	.
.	.	.	.	.	.	1A	Su-	.	.	1e	-ti-
.	.	.	.	.	.	.	.	2c#i\	-ti-	.	.
=21	=21	=21	=21	=21	=21	=21	=21	=21	=21	=21	=21
1r	.	0r	.	0r	.	1B-	-pre-	0d	-us	0d	-us
1D	Su-	.	.	.	.	2A/	-mi	.	.	.	.
.	.	.	.	.	.	[2B-\	re-	.	.	.	.
=22	=22	=22	=22	=22	=22	=22	=22	=22	=22	=22	=22
1E-i	-pre-	0r	.	0r	.	2B-\]	.	0r	.	0r	.
.	.	.	.	.	.	4A/	.	.	.	.	.
.	.	.	.	.	.	4G/	.	.	.	.	.
1D	-mi	.	.	.	.	2B-\	.	.	.	.	.
.	.	.	.	.	.	2A/	-gis	.	.	.	.
=23	=23	=23	=23	=23	=23	=23	=23	=23	=23	=23	=23
1.G	re-	0r	.	0r	.	4G/	nun-	0r	.	0r	.
.	.	.	.	.	.	4A/	.	.	.	.	.
.	.	.	.	.	.	4B-\	.	.	.	.	.
.	.	.	.	.	.	4c\	.	.	.	.	.
.	.	.	.	.	.	2d\	.	.	.	.	.
2G\	-gis	.	.	.	.	[2e\	.	.	.	.	.
=24	=24	=24	=24	=24	=24	=24	=24	=24	=24	=24	=24
2.F\	nun-	0r	.	0r	.	4e\]	.	0r	.	0r	.
.	.	.	.	.	.	4d\	.	.	.	.	.
.	.	.	.	.	.	1d	.	.	.	.	.
4D\	.	.	.	.	.	.	.	.	.	.	.
1E	-ti-	.	.	.	.	.	.	.	.	.	.
.	.	.	.	.	.	2c#i\	-ti-	.	.	.	.
=25	=25	=25	=25	=25	=25	=25	=25	=25	=25	=25	=25
0D	-us	0r	.	0r	.	0d	-us	1r	.	1r	.
.	.	.	.	.	.	.	.	1f	Ple-	1a	Ple-
=26	=26	=26	=26	=26	=26	=26	=26	=26	=26	=26	=26
0r	.	0r	.	0r	.	0r	.	1g	-nam	1b-	-nam
.	.	.	.	.	.	.	.	1g	tes-	1b-	tes-
=27	=27	=27	=27	=27	=27	=27	=27	=27	=27	=27	=27
0r	.	0r	.	0r	.	0r	.	2.f\	-ta-	2.a/	-ta-
.	.	.	.	.	.	.	.	4e\	.	4cc\	.
.	.	.	.	.	.	.	.	2d\	.	2b-\	.
.	.	.	.	.	.	.	.	2c\	-tur	[2a/	-tur
=28	=28	=28	=28	=28	=28	=28	=28	=28	=28	=28	=28
1r	.	0r	.	0r	.	1r	.	2.B-\	gra-	4a/]	.
.	.	.	.	.	.	.	.	.	.	4g/	.
.	.	.	.	.	.	.	.	.	.	2.g/	gra-
.	.	.	.	.	.	.	.	4G/	.	.	.
1D	Ple-	.	.	.	.	1A	Ple-	1A	-ti-	.	.
.	.	.	.	.	.	.	.	.	.	4f#i/	.
.	.	.	.	.	.	.	.	.	.	4f#i/	-ti-
.	.	.	.	.	.	.	.	.	.	4e/	.
=29	=29	=29	=29	=29	=29	=29	=29	=29	=29	=29	=29
1G	-nam	0r	.	0r	.	1B-	-nam	0G	-a.	0g	-a.
1G	tes-	.	.	.	.	1B-	tes-	.	.	.	.
=30	=30	=30	=30	=30	=30	=30	=30	=30	=30	=30	=30
2.F\	-ta-	0r	.	0r	.	2.A/	-ta-	0r	.	0r	.
4E\	.	.	.	.	.	4c\	.	.	.	.	.
2D\	.	.	.	.	.	2B-\	.	.	.	.	.
2C/	-tur	.	.	.	.	[2A/	-tur	.	.	.	.
=31	=31	=31	=31	=31	=31	=31	=31	=31	=31	=31	=31
2.BB-/	gra-	0r	.	0r	.	2A/]	.	0r	.	0r	.
.	.	.	.	.	.	2.G/	gra-	.	.	.	.
4GG/	.	.	.	.	.	.	.	.	.	.	.
1AA	-ti-	.	.	.	.	.	.	.	.	.	.
.	.	.	.	.	.	4F#i/	.	.	.	.	.
.	.	.	.	.	.	4F#i/	-ti-	.	.	.	.
.	.	.	.	.	.	4E/	.	.	.	.	.
=32	=32	=32	=32	=32	=32	=32	=32	=32	=32	=32	=32
[0GG	-a.	0r	.	0r	.	0G	-a.	1r	.	0r	.
.	.	.	.	.	.	.	.	1d	Te	.	.
=33	=33	=33	=33	=33	=33	=33	=33	=33	=33	=33	=33
0GG]	.	0G	Be-	0r	.	2r	.	1d	spon-	1r	.
.	.	.	.	.	.	2d\	Te	.	.	.	.
.	.	.	.	.	.	1d	spon-	1G	-sam,	1dd	Te
=34	=34	=34	=34	=34	=34	=34	=34	=34	=34	=34	=34
0r	.	0G	-a-	0r	.	1G	-sam,	2r	.	1dd	spon-
.	.	.	.	.	.	.	.	2d\	te	.	.
.	.	.	.	.	.	2r	.	1d	spon-	1g	-sam
.	.	.	.	.	.	2d\	te	.	.	.	.
=35	=35	=35	=35	=35	=35	=35	=35	=35	=35	=35	=35
1r	.	0B-	-ta	0d	Be-	1d	spon-	1G	sam	1dd	fac-
1G	Te	.	.	.	.	2G/	-sam	2d\	fac-	2dd\	-tor
.	.	.	.	.	.	[2B-\	fac-	2G/	-tor	[2dd\	om-
=36	=36	=36	=36	=36	=36	=36	=36	=36	=36	=36	=36
1G	-spon-	0G	ma-	0d	-a-	4B-\]	.	2.B-\	om-	4dd\]	.
.	.	.	.	.	.	4c\	.	.	.	4cc\	.
.	.	.	.	.	.	2d\	.	.	.	4b-\	.
.	.	.	.	.	.	.	.	4c\	.	4a/	.
1GG	-sam	.	.	.	.	2G/	-tor	2d\	.	2b-\	.
.	.	.	.	.	.	[2d\	om-	2G/	.	2b-\	-ni-
=37	=37	=37	=37	=37	=37	=37	=37	=37	=37	=37	=37
1D	fac-	0F	-ter	0f	-ta	2d\]	.	2A/	.	1a	-um,
.	.	.	.	.	.	4c\	.	2D/	.	.	.
.	.	.	.	.	.	4B-\	.	.	.	.	.
2D\	-tor	.	.	.	.	2A/	.	2F/	.	1r	.
[2D\	om-	.	.	.	.	[2B-\	.	2D/	.	.	.
=38	=38	=38	=38	=38	=38	=38	=38	=38	=38	=38	=38
4D\]	.	0r	.	0d	ma-	4B-\]	.	4F/	.	0r	.
4C/	.	.	.	.	.	4A/	.	4E/	.	.	.
4BB-/	.	.	.	.	.	1A	.	4D/	.	.	.
4AA/	.	.	.	.	.	.	.	4C/	.	.	.
2BB-/	.	.	.	.	.	.	.	2.D/	.	.	.
2BB-/	-ni-	.	.	.	.	2G/	-ni-	.	.	.	.
.	.	.	.	.	.	.	.	4E/	.	.	.
=39	=39	=39	=39	=39	=39	=39	=39	=39	=39	=39	=39
0AA	-um,	0r	.	0c	-ter	1A	-um,	2.F/	-ni-	0r	.
.	.	.	.	.	.	.	.	4G/	.	.	.
.	.	.	.	.	.	2r	.	1E	-um,	.	.
.	.	.	.	.	.	2c\	Te	.	.	.	.
=40	=40	=40	=40	=40	=40	=40	=40	=40	=40	=40	=40
0r	.	0G	et	0r	.	1d	ma-	2r	.	1r	.
.	.	.	.	.	.	.	.	2d\	Te	.	.
.	.	.	.	.	.	1G	-trem,	1d	ma-	2r	.
.	.	.	.	.	.	.	.	.	.	2dd\	Te
=41	=41	=41	=41	=41	=41	=41	=41	=41	=41	=41	=41
0r	.	1G	in-	0r	.	2r	.	1G	-trem,	1dd	ma-
.	.	.	.	.	.	2d\	te	.	.	.	.
.	.	1G	-nup-	.	.	1d	ma-	2r	.	1g	-trem
.	.	.	.	.	.	.	.	2d\	te	.	.
=42	=42	=42	=42	=42	=42	=42	=42	=42	=42	=42	=42
1r	.	0B-	-ta	0d	et	1G	-trem	1d	ma-	1dd	de-
1G	Te	.	.	.	.	2d\	de-	[1G	-trem	2dd\	-i
.	.	.	.	.	.	2G/	-i	.	.	[2dd\	fi-
=43	=43	=43	=43	=43	=43	=43	=43	=43	=43	=43	=43
1G	ma-	0G	vir-	1d	in-	2.B-\	fi-	1G]	.	4dd\]	.
.	.	.	.	.	.	.	.	.	.	4cc\	.
.	.	.	.	.	.	.	.	.	.	4b-\	.
.	.	.	.	.	.	4c\	.	.	.	4a/	.
1GG	-trem	.	.	1d	-nup-	2d\	.	2r	.	2b-\	.
.	.	.	.	.	.	2G/	-li-	[2d\	de-	2b-\	-li-
=44	=44	=44	=44	=44	=44	=44	=44	=44	=44	=44	=44
1D	de-	0F	-go,	0f	-ta	2A/	-us,	2d\]	.	1a	-us,
.	.	.	.	.	.	2D/	fi-	4c\	.	.	.
.	.	.	.	.	.	.	.	4B-\	.	.	.
2D\	-i	.	.	.	.	2F/	.	2A/	-i	1r	.
[2D\	fi-	.	.	.	.	2D/	.	[2B-\	fi-	.	.
=45	=45	=45	=45	=45	=45	=45	=45	=45	=45	=45	=45
4D\]	.	0r	.	0d	vir-	4F/	.	4B-\]	.	0r	.
4C/	.	.	.	.	.	4E/	.	4A/	.	.	.
4BB-/	.	.	.	.	.	4D/	.	1A	.	.	.
4AA/	.	.	.	.	.	4C/	.	.	.	.	.
2BB-/	.	.	.	.	.	2.D/	.	.	.	.	.
2BB-/	-li-	.	.	.	.	.	.	2G/	-li-	.	.
.	.	.	.	.	.	4E/	.	.	.	.	.
=46	=46	=46	=46	=46	=46	=46	=46	=46	=46	=46	=46
0AA	-us,	0r	.	0c	-go,	2.F/	.	0A	-us,	1r	.
.	.	.	.	.	.	4G/	.	.	.	.	.
.	.	.	.	.	.	2E/	.	.	.	1cc	Te
.	.	.	.	.	.	2A/	.	.	.	.	.
=47	=47	=47	=47	=47	=47	=47	=47	=47	=47	=47	=47
0r	.	0r	.	0r	.	2F/	.	1r	.	1dd	vo-
.	.	.	.	.	.	2G/	.	.	.	.	.
.	.	.	.	.	.	1E	-li-	1c	Te	1g	-cat
=48	=48	=48	=48	=48	=48	=48	=48	=48	=48	=48	=48
0r	.	0r	.	0r	.	1D	-us,	1d	vo-	2r	.
.	.	.	.	.	.	.	.	.	.	2dd\	ha-
.	.	.	.	.	.	2r	.	1G	-cat	2dd\	-bi-
.	.	.	.	.	.	2d\	Te	.	.	[2dd\	-ta-
=49	=49	=49	=49	=49	=49	=49	=49	=49	=49	=49	=49
0r	.	0r	.	0r	.	1d	vo-	2r	.	4dd\]	.
.	.	.	.	.	.	.	.	.	.	4cc\	.
.	.	.	.	.	.	.	.	2d\	ha-	4b-\	.
.	.	.	.	.	.	.	.	.	.	4a/	.
.	.	.	.	.	.	1G	-cat	2d\	-bi-	2b-\	.
.	.	.	.	.	.	.	.	[2d\	-ta-	2b-\	-cu-
=50	=50	=50	=50	=50	=50	=50	=50	=50	=50	=50	=50
0r	.	0r	.	0r	.	1r	.	4d\]	.	1a	-lum
.	.	.	.	.	.	.	.	4c\	.	.	.
.	.	.	.	.	.	.	.	4B-\	.	.	.
.	.	.	.	.	.	.	.	4A/	.	.	.
.	.	.	.	.	.	2r	.	2B-\	.	1dd	Su-
.	.	.	.	.	.	2d\	ha-	2B-\	-cu-	.	.
=51	=51	=51	=51	=51	=51	=51	=51	=51	=51	=51	=51
0r	.	0A	Glo-	0r	.	2e\	-bi-	2A/	-lum	2cc\	-um
.	.	.	.	.	.	2.f\	-ta-	2F/	.	2a/	be-
.	.	.	.	.	.	.	.	1A	.	1cc	-a-
.	.	.	.	.	.	4e\	.	.	.	.	.
.	.	.	.	.	.	2c\	.	.	.	.	.
=52	=52	=52	=52	=52	=52	=52	=52	=52	=52	=52	=52
0r	.	0B-	-ri-	0r	.	2d\	.	2.G/	-Su-	2.b-\	-tus
.	.	.	.	.	.	2G/	-cu-	.	.	.	.
.	.	.	.	.	.	.	.	4F/	.	4a/	.
.	.	.	.	.	.	1d	-lum	2D/	.	2f/	.
.	.	.	.	.	.	.	.	2G/	.	[2g/	spi-
=53	=53	=53	=53	=53	=53	=53	=53	=53	=53	=53	=53
1r	.	0c	-o-	0e	Glo-	2.c\	Su-	1C	um	4g/]	.
.	.	.	.	.	.	.	.	.	.	4f/	.
.	.	.	.	.	.	.	.	.	.	4e/	.
.	.	.	.	.	.	4B-\	.	.	.	4d/	.
1C	Te	.	.	.	.	1G	.	2r	.	1e	-ri-
.	.	.	.	.	.	.	.	2C/	be-	.	.
=54	=54	=54	=54	=54	=54	=54	=54	=54	=54	=54	=54
*	*	*	*	*	*	*	*	*M3/1	*	*	*
*met(3)	*	*met(3)	*	*met(3)	*	*met(3)	*	*met(3)	*	*met(3)	*
1D	vo-	1B-	-sa	0f	-ri-	0F	-um	3F/	-a-	0d	-tus,
.	.	.	.	.	.	.	.	3D/	.	.	.
.	.	.	.	.	.	.	.	3E/	-tus	.	.
1D	-cat	1A	.	.	.	.	.	3.F/	spi-	.	.
.	.	.	.	.	.	.	.	6G/	.	.	.
.	.	.	.	.	.	.	.	3A/	.	.	.
=55	=55	=55	=55	=55	=55	=55	=55	=55	=55	=55	=55
*	*	*	*	*	*	*	*	*M2/1	*	*	*
*met(C|)	*	*met(C|)	*	*met(C|)	*	*met(C|)	*	*met(C|)	*	*met(C|)	*
2GG/	ha-	1r	.	0g	-o-	2r	.	2B-\	.	0r	.
2GG/	-bi-	.	.	.	.	2B-\	be-	4G/	.	.	.
.	.	.	.	.	.	.	.	4A/	.	.	.
2GG/	-ta-	1G	re-	.	.	2G/	-a-	4B-\	.	.	.
.	.	.	.	.	.	.	.	4c\	.	.	.
2GG/	-cu-	.	.	.	.	2B-\	-tus	[2d\	.	.	.
=56	=56	=56	=56	=56	=56	=56	=56	=56	=56	=56	=56
1D	-lum	1A	-gi-	1f	-sa	2A/	spi-	4d\]	.	1r	.
.	.	.	.	.	.	.	.	4e\	.	.	.
.	.	.	.	.	.	2F/	.	4f\	.	.	.
.	.	.	.	.	.	.	.	4d\	.	.	.
2.C/	Su-	1c	-na	1e	.	2G/	.	2e\	.	2r	.
.	.	.	.	.	.	2E/	.	2c\	-ri-	2g/	be-
4BB-/	.	.	.	.	.	.	.	.	.	.	.
=57	=57	=57	=57	=57	=57	=57	=57	=57	=57	=57	=57
1GG	-um	2B-\	mun-	1r	.	2.G/	.	0d	-tus,	2g/	-a-
.	.	2G/	.	.	.	.	.	.	.	2g/	-tus
.	.	.	.	.	.	4F/	-ri-	.	.	.	.
1r	.	1A	.	1d	re-	2D/	-tus,	.	.	4f/	spi-
.	.	.	.	.	.	.	.	.	.	4g/	.
.	.	.	.	.	.	2F/	be-	.	.	4a/	-ri-
.	.	.	.	.	.	.	.	.	.	4f/	.
=58	=58	=58	=58	=58	=58	=58	=58	=58	=58	=58	=58
2r	.	0G	-di,	1e	-gi-	2E/	-a-	1r	.	0g	-tus,
2G\	be-	.	.	.	.	4C/	.	.	.	.	.
.	.	.	.	.	.	4D/	.	.	.	.	.
2C/	-a-	.	.	1g	-na	4E/	.	2r	.	.	.
.	.	.	.	.	.	4F/	.	.	.	.	.
2E\	-tus	.	.	.	.	4G/	.	2G/	be-	.	.
.	.	.	.	.	.	4E/	.	.	.	.	.
=59	=59	=59	=59	=59	=59	=59	=59	=59	=59	=59	=59
2D\	spi-	0r	.	2f\	mun-	2F/	.	2A/	-a-	0r	.
2GG/	.	.	.	2d\	.	2G/	-tus	2B-\	-tus	.	.
2.C/	.	.	.	1e	.	2.E/	spi-	3c\V	spi-	.	.
.	.	.	.	.	.	.	.	3G/	.	.	.
.	.	.	.	.	.	.	.	3c\Z	.	.	.
4BB-/	-ri-	.	.	.	.	4F/	.	.	.	.	.
=60	=60	=60	=60	=60	=60	=60	=60	=60	=60	=60	=60
0GG	-tus,	1r	.	0d	-di,	2.G/	.	2B-\	.	0r	.
.	.	.	.	.	.	.	.	1G	.	.	.
.	.	.	.	.	.	4A/	.	.	.	.	.
.	.	1G	re-	.	.	4B-\	.	.	.	.	.
.	.	.	.	.	.	4c\	.	.	.	.	.
.	.	.	.	.	.	[2d\	.	4F/	-ri-	.	.
.	.	.	.	.	.	.	.	4E/	.	.	.
=61	=61	=61	=61	=61	=61	=61	=61	=61	=61	=61	=61
0r	.	1A	-gi-	0r	.	4d\]	.	1D	-tus,	1r	.
.	.	.	.	.	.	4e\	.	.	.	.	.
.	.	.	.	.	.	4f\	.	.	.	.	.
.	.	.	.	.	.	4d\	.	.	.	.	.
.	.	1c	-na	.	.	2e\	.	1C	be-	2r	.
.	.	.	.	.	.	2c\	-ri-	.	.	2g/	be-
=62	=62	=62	=62	=62	=62	=62	=62	=62	=62	=62	=62
0r	.	2B-\	mun-	1r	.	0d	-tus,	2.G/	-a-	2g/	-a-
.	.	2G/	.	.	.	.	.	.	.	2g/	-tus
.	.	.	.	.	.	.	.	4F/	.	.	.
.	.	1A	.	1d	re-	.	.	2D/	.	4f/	spi-
.	.	.	.	.	.	.	.	.	.	4g/	.
.	.	.	.	.	.	.	.	2F/	.	4a/	-ri-
.	.	.	.	.	.	.	.	.	.	4f/	.
=63	=63	=63	=63	=63	=63	=63	=63	=63	=63	=63	=63
2r	.	0G	-di,	1e	-gi-	1r	.	2E/	-tus	0g	-tus.
2G\	be-	.	.	.	.	.	.	4C/	spi-	.	.
.	.	.	.	.	.	.	.	4D/	.	.	.
2C/	-a-	.	.	1g	-na	2r	.	4E/	.	.	.
.	.	.	.	.	.	.	.	4F/	.	.	.
2E\	-tus	.	.	.	.	2G/	be-	4G/	.	.	.
.	.	.	.	.	.	.	.	4E/	.	.	.
=64	=64	=64	=64	=64	=64	=64	=64	=64	=64	=64	=64
2D\	spi-	0r	.	2f\	mun-	2A/	-a-	2F/	.	0r	.
2GG/	.	.	.	2d\	.	2B-\	-tus	2G/	.	.	.
2.C/	.	.	.	1e	.	2G/	spi-	2.E/	.	.	.
.	.	.	.	.	.	2c\	-ri-	.	.	.	.
4BB-/	-ri-	.	.	.	.	.	.	4F/	-ri-	.	.
=65	=65	=65	=65	=65	=65	=65	=65	=65	=65	=65	=65
*M3/1	*	*M3/1	*	*M3/1	*	*M3/1	*	*M3/1	*	*M3/1	*
*met()	*	*met()	*	*met()	*	*met(3)	*	*met()	*	*met(3)	*
!LO:N:vis=0	!	!	!	!LO:N:vis=0	!	!	!	!LO:N:vis=0	!	!	!
0.GG	-tus	0.r	.	0.d	-di,	0B-	-tus.	0.G	-tus.	1dd	Tu
.	.	.	.	.	.	.	.	.	.	1dd	stel-
.	.	.	.	.	.	1r	.	.	.	1b-	-la
=66	=66	=66	=66	=66	=66	=66	=66	=66	=66	=66	=66
0.r	.	0.r	.	0.r	.	1d	Tu	0.r	.	1a	ma-
.	.	.	.	.	.	1d	stel-	.	.	0dd	-ris
.	.	.	.	.	.	1B-	-la	.	.	.	.
=67	=67	=67	=67	=67	=67	=67	=67	=67	=67	=67	=67
0.r	.	0.r	.	0.r	.	1A	ma-	0.r	.	1cc	di-
.	.	.	.	.	.	0d	-ris	.	.	1a	.
.	.	.	.	.	.	.	.	.	.	1b-	-ce-
=68	=68	=68	=68	=68	=68	=68	=68	=68	=68	=68	=68
0.r	.	0.r	.	0.r	.	1c	di-	0.r	.	0a	-ris,
.	.	.	.	.	.	1A	.	.	.	.	.
.	.	.	.	.	.	1B-	-ce-	.	.	1r	.
=69	=69	=69	=69	=69	=69	=69	=69	=69	=69	=69	=69
0.r	.	0.r	.	0.r	.	0A	-ris,	0.r	.	1cc	Quae
.	.	.	.	.	.	.	.	.	.	1cc	no-
.	.	.	.	.	.	1r	.	.	.	1a	-bis
=70	=70	=70	=70	=70	=70	=70	=70	=70	=70	=70	=70
0.r	.	0.r	.	0.r	.	1c	Quae	0.r	.	1g	in-
.	.	.	.	.	.	1c	no-	.	.	0cc	-ter
.	.	.	.	.	.	1A	-bis	.	.	.	.
=71	=71	=71	=71	=71	=71	=71	=71	=71	=71	=71	=71
0.r	.	0.r	.	0.r	.	1G	in-	0.r	.	1b-	sco-
.	.	.	.	.	.	0c	-ter	.	.	1g	.
.	.	.	.	.	.	.	.	.	.	1a	-pu-
=72	=72	=72	=72	=72	=72	=72	=72	=72	=72	=72	=72
0.r	.	0.r	.	0.r	.	1B-	sco-	0.r	.	0g	-los,
.	.	.	.	.	.	1G	.	.	.	.	.
.	.	.	.	.	.	1A	-pu-	.	.	1r	.
=73	=73	=73	=73	=73	=73	=73	=73	=73	=73	=73	=73
0.r	.	0.r	.	0.r	.	0G	-los,	0.r	.	1dd	In-
.	.	.	.	.	.	.	.	.	.	1dd	-ter
.	.	.	.	.	.	1r	.	.	.	1b-	ob-
=74	=74	=74	=74	=74	=74	=74	=74	=74	=74	=74	=74
0.r	.	0.r	.	0.r	.	1d	In-	0.r	.	1a	-scu-
.	.	.	.	.	.	1d	-ter	.	.	0dd	-ros
.	.	.	.	.	.	1B-	ob-	.	.	.	.
=75	=75	=75	=75	=75	=75	=75	=75	=75	=75	=75	=75
0.r	.	0.r	.	0.r	.	1A	-scu-	0.r	.	1cc	tur-
.	.	.	.	.	.	0d	-ros	.	.	1a	.
.	.	.	.	.	.	.	.	.	.	1b-	-bi-
=76	=76	=76	=76	=76	=76	=76	=76	=76	=76	=76	=76
0.r	.	0.r	.	0.r	.	1c	tur-	0.r	.	0a	-nes
.	.	.	.	.	.	1A	.	.	.	.	.
.	.	.	.	.	.	1B-	-bi-	.	.	1r	.
=77	=77	=77	=77	=77	=77	=77	=77	=77	=77	=77	=77
0.r	.	0.r	.	0.r	.	0A	-nes	0.r	.	1cc	Por-
.	.	.	.	.	.	.	.	.	.	1cc	-tum
.	.	.	.	.	.	1r	.	.	.	1a	sa-
=78	=78	=78	=78	=78	=78	=78	=78	=78	=78	=78	=78
0.r	.	0.r	.	0.r	.	1c	Por-	0.r	.	1g	-lu-
.	.	.	.	.	.	1c	-tum	.	.	0cc	-tis
.	.	.	.	.	.	1A	sa-	.	.	.	.
=79	=79	=79	=79	=79	=79	=79	=79	=79	=79	=79	=79
0.r	.	0.r	.	0.r	.	1G	-lu-	0.r	.	1b-	in-
.	.	.	.	.	.	0c	-tis	.	.	1.a	.
.	.	.	.	.	.	.	.	.	.	2g/	.
=80	=80	=80	=80	=80	=80	=80	=80	=80	=80	=80	=80
0.r	.	0.r	.	0.r	.	1B-	in-	0.r	.	0g	.
.	.	.	.	.	.	1G	.	.	.	.	.
.	.	.	.	.	.	1A	-di-	.	.	1f#i	-di-
=81	=81	=81	=81	=81	=81	=81	=81	=81	=81	=81	=81
*	*	*	*	*	*	*M2/1	*	*	*	*M2/1	*
*	*	*	*	*	*	*met(C|)	*	*	*	*met(C|)	*
0r	.	0r	.	0r	.	0G	-cas.	1r	.	0g	-cas.
.	.	.	.	.	.	.	.	2r	.	.	.
.	.	.	.	.	.	.	.	2g\	Per	.	.
=82	=82	=82	=82	=82	=82	=82	=82	=82	=82	=82	=82
0r	.	0r	.	0r	.	0r	.	2g\	te	2r	.
.	.	.	.	.	.	.	.	2g\	de	2dd\	Per
.	.	.	.	.	.	.	.	2f\	te-	2dd\	te
.	.	.	.	.	.	.	.	2d\	-tro	2dd\	de
=83	=83	=83	=83	=83	=83	=83	=83	=83	=83	=83	=83
0r	.	0r	.	0r	.	0r	.	2e\	car-	1cc	te-
.	.	.	.	.	.	.	.	2f\	.	.	.
.	.	.	.	.	.	.	.	2g\	.	2b-\	-tro
.	.	.	.	.	.	.	.	4c\	.	[2cc\	car-
.	.	.	.	.	.	.	.	4d\	.	.	.
=84	=84	=84	=84	=84	=84	=84	=84	=84	=84	=84	=84
0r	.	0r	.	0r	.	0r	.	4e\	.	4cc\]	.
.	.	.	.	.	.	.	.	4f\	.	4b-\	.
.	.	.	.	.	.	.	.	2.g\	.	4a/	.
.	.	.	.	.	.	.	.	.	.	4g/	.
.	.	.	.	.	.	.	.	.	.	2a/	.
.	.	.	.	.	.	.	.	4f#i\	.	.	.
.	.	.	.	.	.	.	.	4f#i\	-ce-	2a/	-ce-
.	.	.	.	.	.	.	.	4e\	.	.	.
=85	=85	=85	=85	=85	=85	=85	=85	=85	=85	=85	=85
0r	.	0r	.	0r	.	1r	.	2g\	-re,	2g/	-re,
.	.	.	.	.	.	.	.	4G/	car-	1b-	car-
.	.	.	.	.	.	.	.	4A/	.	.	.
.	.	.	.	.	.	1G	Per	4B-\	.	.	.
.	.	.	.	.	.	.	.	4c\	.	.	.
.	.	.	.	.	.	.	.	4d\	-ce-	4a/	-ce-
.	.	.	.	.	.	.	.	4e\	.	4g/	.
=86	=86	=86	=86	=86	=86	=86	=86	=86	=86	=86	=86
2r	.	0F	in-	0r	.	2d\	te	0f	-re	0a	re
2D\	-Per	.	.	.	.	2d\	de	.	.	.	.
2D\	te	.	.	.	.	2.A/	te-	.	.	.	.
2D\	de	.	.	.	.	.	.	.	.	.	.
.	.	.	.	.	.	4B-\	.	.	.	.	.
=87	=87	=87	=87	=87	=87	=87	=87	=87	=87	=87	=87
1C	te-	0G	-ter-	0r	.	2c\	-tro	0r	.	0r	.
.	.	.	.	.	.	2C/	car-	.	.	.	.
2BB-/	-tro	.	.	.	.	2D/	.	.	.	.	.
[2C/	car-	.	.	.	.	[2E/	.	.	.	.	.
=88	=88	=88	=88	=88	=88	=88	=88	=88	=88	=88	=88
4C/]	.	0c	-ce-	0c	in-	4E/]	.	0r	.	1r	.
4BB-/	.	.	.	.	.	4F/	.	.	.	.	.
4AA/	.	.	.	.	.	2.G/	.	.	.	.	.
4GG/	.	.	.	.	.	.	.	.	.	.	.
2AA/	.	.	.	.	.	.	.	.	.	1a	An-
.	.	.	.	.	.	4F#i/	.	.	.	.	.
2AA/	-ce-	.	.	.	.	4F#i/	-ce-	.	.	.	.
.	.	.	.	.	.	4E/	.	.	.	.	.
=89	=89	=89	=89	=89	=89	=89	=89	=89	=89	=89	=89
[0GG	-re,	[0B-	-de	0d	-ter-	[0G	-re,	1r	.	2b-\	-ti-
.	.	.	.	.	.	.	.	.	.	2g/	-qui
.	.	.	.	.	.	.	.	1d	An-	2dd\	pa-
.	.	.	.	.	.	.	.	.	.	2g/	-tres
=90	=90	=90	=90	=90	=90	=90	=90	=90	=90	=90	=90
0GG]	.	0B-]	.	0g	-ce-	0G]	.	2G/	-ti-	4b-\	ex-
.	.	.	.	.	.	.	.	.	.	4a/	.
.	.	.	.	.	.	.	.	2d\	-qui	4g/	.
.	.	.	.	.	.	.	.	.	.	4f/	.
.	.	.	.	.	.	.	.	2G/	pa-	4g/	-e-
.	.	.	.	.	.	.	.	.	.	4a/	.
.	.	.	.	.	.	.	.	[2d\	.	4b-\	.
.	.	.	.	.	.	.	.	.	.	4g/	.
=91	=91	=91	=91	=91	=91	=91	=91	=91	=91	=91	=91
1r	.	0A	.	[0f	-de	0D	.	2d\]	.	0a	-runt;
.	.	.	.	.	.	.	.	4c\	.	.	.
.	.	.	.	.	.	.	.	4B-\	.	.	.
1D	An-	.	.	.	.	.	.	2A/	.	.	.
.	.	.	.	.	.	.	.	[2d\	.	.	.
=92	=92	=92	=92	=92	=92	=92	=92	=92	=92	=92	=92
1D	-ti-	0r	.	0f]	.	1F	An-	4d\]	.	0r	.
.	.	.	.	.	.	.	.	4c\	.	.	.
.	.	.	.	.	.	.	.	2d\	.	.	.
1D	-qui	.	.	.	.	2F/	-ti-	2.A/	.	.	.
.	.	.	.	.	.	2F/	-qui	.	.	.	.
.	.	.	.	.	.	.	.	4B-\	.	.	.
=93	=93	=93	=93	=93	=93	=93	=93	=93	=93	=93	=93
1C	pa-	1r	.	0e	.	1G	pa-	0c	-tres	0r	.
1AA	-tres	1A	pro	.	.	1A	-tres	.	.	.	.
=94	=94	=94	=94	=94	=94	=94	=94	=94	=94	=94	=94
1.D	ex-	1A	no-	0r	.	2.F/	ex-	1.f	ex-	2r	.
.	.	.	.	.	.	.	.	.	.	2.a/	Per
.	.	.	.	.	.	4G/	.	.	.	.	.
.	.	1A	-bis	.	.	1A	.	.	.	.	.
.	.	.	.	.	.	.	.	.	.	4b-\	.
2C/	.	.	.	.	.	.	.	2e\	.	2cc\	.
=95	=95	=95	=95	=95	=95	=95	=95	=95	=95	=95	=95
1BB-	-e-	2B-\	ad	1r	.	1D	-e-	1d	-e-	2dd\	te
.	.	2G/	do-	.	.	.	.	.	.	2b-\	.
1AA	-runt;	1A	-mi-	1e	pro	1E	-runt;	1c	-runt;	[1cc	no-
=96	=96	=96	=96	=96	=96	=96	=96	=96	=96	=96	=96
1C	Per	0G	-num,	1e	no-	0r	.	2r	.	2cc\]	.
.	.	.	.	.	.	.	.	2c\	Per	4b-\	.
.	.	.	.	.	.	.	.	.	.	4a/	.
2C/	te	.	.	1e	-bis	.	.	2c\	te	1g	.
2C/	no-	.	.	.	.	.	.	2c\	no-	.	.
=97	=97	=97	=97	=97	=97	=97	=97	=97	=97	=97	=97
1D	-bis	0r	.	2f\	ad	1r	.	4A/	-bis	1f	-bis
.	.	.	.	.	.	.	.	4G/	.	.	.
.	.	.	.	2d\	do-	.	.	4A/	.	.	.
.	.	.	.	.	.	.	.	4B-\	.	.	.
1AA	as-	.	.	1e	-mi-	1E	Per	2c\	.	2r	.
.	.	.	.	.	.	.	.	[2A/	.	2cc\	as-
=98	=98	=98	=98	=98	=98	=98	=98	=98	=98	=98	=98
1.D	-tri-	1r	.	0d	-num,	1F	te	4A/]	.	1.dd	-tri-
.	.	.	.	.	.	.	.	4G/	.	.	.
.	.	.	.	.	.	.	.	4F/	.	.	.
.	.	.	.	.	.	.	.	4E/	.	.	.
.	.	1A	pro	.	.	1F	no-	2D/	.	.	.
2D\	-fe-	.	.	.	.	.	.	2d\	as-	2dd\	-fe-
=99	=99	=99	=99	=99	=99	=99	=99	=99	=99	=99	=99
2.AA/	-rae,	1A	no-	0r	.	2.E/	-bis	2e\	-tri-	1cc	-rae,
.	.	.	.	.	.	.	.	2c\	-fe-	.	.
4BB-/	.	.	.	.	.	4D/	as-	.	.	.	.
2C/	.	1A	-bis	.	.	2E/	-tri-	2c\	-rae,	1r	.
2D\	.	.	.	.	.	2F/	.	2A/	as-	.	.
=100	=100	=100	=100	=100	=100	=100	=100	=100	=100	=100	=100
1BB-	.	2B-\	ad	1r	.	1D	-fe-	2.d\	-tri-	2r	.
.	.	2G/	do-	.	.	.	.	.	.	2b-\	Pan-
.	.	.	.	.	.	.	.	4d\	-fe-	.	.
1AA	.	1A	-mi-	1e	pro	[1E	-rae,	1c	-rae,	4cc\	-dun-
.	.	.	.	.	.	.	.	.	.	4a/	.
.	.	.	.	.	.	.	.	.	.	[2cc\	.
=101	=101	=101	=101	=101	=101	=101	=101	=101	=101	=101	=101
1C	Pan-	0G	-num,	1e	no-	1E]	.	2r	.	2cc\]	.
.	.	.	.	.	.	.	.	2c\	Pan-	4b-\	.
.	.	.	.	.	.	.	.	.	.	4a/	.
2C/	-dun-	.	.	1e	-bis	2r	.	2c\	-dun-	1g	-tur
2C/	-tur	.	.	.	.	2E/	Pan-	2c\	-tur	.	.
=102	=102	=102	=102	=102	=102	=102	=102	=102	=102	=102	=102
1D	au-	0r	.	2f\	ad	2D/	-dun-	1A	au-	2f/	au-
.	.	.	.	2d\	do-	2F/	.	.	.	2f/	-lae
2.C/	-lae	.	.	1e	-mi-	2E/	.	1c	-lae	2.g/	li-
.	.	.	.	.	.	2C/	.	.	.	.	.
4BB-/	.	.	.	.	.	.	.	.	.	4a/	.
=103	=103	=103	=103	=103	=103	=103	=103	=103	=103	=103	=103
2GG/	.	1r	.	0d	-num,	1G	-tur	2B-\	li-	4b-\	.
.	.	.	.	.	.	.	.	.	.	4cc\	.
1G	li-	.	.	.	.	.	.	2G/	.	1b-	.
.	.	2r	.	.	.	1r	.	2.B-\	.	.	.
4F\	.	2G/	ad	.	.	.	.	.	.	4a/	.
4E\	.	.	.	.	.	.	.	4c\	.	4g/	.
=104	=104	=104	=104	=104	=104	=104	=104	=104	=104	=104	=104
2D\	.	2A/	do-	0r	.	2r	.	2d\	.	2f/	.
2E-\	.	2G/	.	.	.	2C/	au-	2c\	.	1g	.
1D	-mi-	1A	-mi-	.	.	2.F/	.	1d	-mi-	.	.
.	.	.	.	.	.	.	.	.	.	2f#i/	-mi-
.	.	.	.	.	.	4D/	-lae	.	.	.	.
=105	=105	=105	=105	=105	=105	=105	=105	=105	=105	=105	=105
0GG	-na,	[0Gl	-num.	1r	.	2E-i/	li-	1B-	-na,	[0gl	-na.
.	.	.	.	.	.	2D/	.	.	.	.	.
.	.	.	.	2r	.	2E-i/	-mi-	2r	.	.	.
.	.	.	.	2d\	ad	2D/	-na,	2B-\	au-	.	.
=106	=106	=106	=106	=106	=106	=106	=106	=106	=106	=106	=106
2C/	au-	0G_	.	2e-i\	do-	2r	.	2c\	.	0g_	.
2BB-/	-lae	.	.	2d\	.	2G/	au-	2d\	-lae	.	.
2.C/	li-	.	.	1e-i	-mi-	2E-i/	.	2.G/	li-	.	.
.	.	.	.	.	.	2C/	-lae	.	.	.	.
4C/	-mi-	.	.	.	.	.	.	4A/	-mi-	.	.
=107	=107	=107	=107	=107	=107	=107	=107	=107	=107	=107	=107
[0GGl	-na.	0G_	.	[0dl	-num.	1.G	li-	[0B-l	-na.	0g_	.
.	.	.	.	.	.	2G/	-mi-	.	.	.	.
=108	=108	=108	=108	=108	=108	=108	=108	=108	=108	=108	=108
0GG]	.	0G]	.	0d]	.	0Dl	-na.	0B-]	.	0g]	.
!!LO:LB:i:g=z
=109||	=109||	=109||	=109||	=109||	=109||	=109||	=109||	=109||	=109||	=109||	=109||
*>B	*>B	*>B	*>B	*>B	*>B	*>B	*>B	*>B	*>B	*>B	*>B
*clefF4	*	*clefGv2	*	*clefGv2	*	*clefGv2	*	*clefGv2	*	*clefG2	*
*k[b-]	*	*k[b-]	*	*k[]	*	*k[b-]	*	*k[b-]	*	*k[b-]	*
*M2/1	*	*M2/1	*	*M2/1	*	*M2/1	*	*M2/1	*	*M2/1	*
*met(C|)	*	*met(C|)	*	*met(C|)	*	*met(C|)	*	*met(C|)	*	*met(C|)	*
!!section: Secunda pars: Audi virgo puerpera
!!!OMD: Secunda pars: Audi virgo puerpera
!	!	!LO:TX:Z=18:X=-40:t=Canon at the upper fifth (2 breves)	!	!	!	!	!	!	!	!	!
0r	.	0r	.	0r	.	0r	.	1G	Au-	0r	.
.	.	.	.	.	.	.	.	1G	-di,	.	.
=110	=110	=110	=110	=110	=110	=110	=110	=110	=110	=110	=110
1GG	Au-	0r	.	0r	.	0r	.	1r	.	0r	.
1GG	-di,	.	.	.	.	.	.	2r	.	.	.
.	.	.	.	.	.	.	.	2D/	au-	.	.
=111	=111	=111	=111	=111	=111	=111	=111	=111	=111	=111	=111
2r	.	0r	.	0r	.	0r	.	2D/	-di	0r	.
2D\	au-	.	.	.	.	.	.	2D/	vir-	.	.
2D\	-di	.	.	.	.	.	.	2.F/	-go	.	.
2D\	vir-	.	.	.	.	.	.	.	.	.	.
.	.	.	.	.	.	.	.	4G/	.	.	.
=112	=112	=112	=112	=112	=112	=112	=112	=112	=112	=112	=112
2.F\	-go	0r	.	0r	.	0r	.	2A/	.	0r	.
.	.	.	.	.	.	.	.	4D/	pu-	.	.
4E\	.	.	.	.	.	.	.	4E/	.	.	.
2D\	.	.	.	.	.	.	.	4F/	.	.	.
.	.	.	.	.	.	.	.	4G/	.	.	.
2C/	pu-	.	.	.	.	.	.	[2A/	-er-	.	.
=113	=113	=113	=113	=113	=113	=113	=113	=113	=113	=113	=113
2BB-/	-er-	0r	.	0r	.	0r	.	4A/]	.	0r	.
.	.	.	.	.	.	.	.	4G/	.	.	.
2C/	.	.	.	.	.	.	.	1G	.	.	.
1AA	-pe-	.	.	.	.	.	.	.	.	.	.
.	.	.	.	.	.	.	.	2F#i/	-pe-	.	.
=114	=114	=114	=114	=114	=114	=114	=114	=114	=114	=114	=114
0GG	-ra	0r	.	0r	.	0r	.	0G	-ra	1g	Au-
.	.	.	.	.	.	.	.	.	.	1g	-di,
=115	=115	=115	=115	=115	=115	=115	=115	=115	=115	=115	=115
0r	.	0r	.	0r	.	1G	Au-	0r	.	1r	.
.	.	.	.	.	.	1G	-di,	.	.	2r	.
.	.	.	.	.	.	.	.	.	.	2d/	au-
=116	=116	=116	=116	=116	=116	=116	=116	=116	=116	=116	=116
0r	.	0r	.	0r	.	2r	.	0r	.	2d/	-di
.	.	.	.	.	.	2d\	au-	.	.	2d/	vir-
.	.	.	.	.	.	2d\	-di	.	.	2.f/	-go
.	.	.	.	.	.	2d\	vir-	.	.	.	.
.	.	.	.	.	.	.	.	.	.	4g/	.
=117	=117	=117	=117	=117	=117	=117	=117	=117	=117	=117	=117
0r	.	0r	.	0r	.	2.f\	-go	0r	.	2a/	.
.	.	.	.	.	.	.	.	.	.	4d/	pu-
.	.	.	.	.	.	4e\	.	.	.	4e/	.
.	.	.	.	.	.	2d\	.	.	.	4f/	.
.	.	.	.	.	.	.	.	.	.	4g/	.
.	.	.	.	.	.	2c\	pu-	.	.	[2a/	-er-
=118	=118	=118	=118	=118	=118	=118	=118	=118	=118	=118	=118
0r	.	0r	.	0r	.	2.B-\	-er-	0r	.	4a/]	.
.	.	.	.	.	.	.	.	.	.	4g/	.
.	.	.	.	.	.	.	.	.	.	1g	.
.	.	.	.	.	.	4G/	.	.	.	.	.
.	.	.	.	.	.	2A/	.	.	.	.	.
.	.	.	.	.	.	2A/	-pe-	.	.	2f#i/	-pe-
=119	=119	=119	=119	=119	=119	=119	=119	=119	=119	=119	=119
1r	.	0r	.	0r	.	0G	-ra	2r	.	0g	-ra
.	.	.	.	.	.	.	.	2B-\	Et	.	.
2r	.	.	.	.	.	.	.	2B-\	so-	.	.
2G\	Et	.	.	.	.	.	.	2B-\	-la	.	.
=120	=120	=120	=120	=120	=120	=120	=120	=120	=120	=120	=120
2G\	so-	0r	.	0r	.	0r	.	1B-	ma-	0r	.
2G\	-la	.	.	.	.	.	.	.	.	.	.
2F\	ma-	.	.	.	.	.	.	2A/	-ter	.	.
2D\	-ter	.	.	.	.	.	.	[2f\	in-	.	.
=121	=121	=121	=121	=121	=121	=121	=121	=121	=121	=121	=121
2.F\	in-	0r	.	0r	.	0r	.	4f\]	.	0r	.
.	.	.	.	.	.	.	.	4e\	.	.	.
.	.	.	.	.	.	.	.	2.d\	.	.	.
4G\	.	.	.	.	.	.	.	.	.	.	.
1E	-te-	.	.	.	.	.	.	.	.	.	.
.	.	.	.	.	.	.	.	4c#i\	.	.	.
.	.	.	.	.	.	.	.	4c#i\	-te-	.	.
.	.	.	.	.	.	.	.	4Bni\	.	.	.
=122	=122	=122	=122	=122	=122	=122	=122	=122	=122	=122	=122
0D	-gra:	0r	.	0r	.	1r	.	0d	-gra:	2r	.
.	.	.	.	.	.	.	.	.	.	2a/	Et
.	.	.	.	.	.	2r	.	.	.	2b-\	so-
.	.	.	.	.	.	2d\	Et	.	.	2a/	-la
=123	=123	=123	=123	=123	=123	=123	=123	=123	=123	=123	=123
0r	.	0r	.	0r	.	2d\	so-	0r	.	1b-	ma-
.	.	.	.	.	.	2d\	-la	.	.	.	.
.	.	.	.	.	.	2c\	ma-	.	.	2a/	-ter
.	.	.	.	.	.	2A/	-ter	.	.	[2cc\	in-
=124	=124	=124	=124	=124	=124	=124	=124	=124	=124	=124	=124
0r	.	0r	.	0r	.	2.c\	in-	0r	.	4cc\]	.
.	.	.	.	.	.	.	.	.	.	4b-\	.
.	.	.	.	.	.	.	.	.	.	2.a/	.
.	.	.	.	.	.	4d\	.	.	.	.	.
.	.	.	.	.	.	1B-	-te-	.	.	.	.
.	.	.	.	.	.	.	.	.	.	4g/	.
.	.	.	.	.	.	.	.	.	.	4g/	-te-
.	.	.	.	.	.	.	.	.	.	4f/	.
=125	=125	=125	=125	=125	=125	=125	=125	=125	=125	=125	=125
1D	Au-	0r	.	0r	.	0A	-gra:	1r	.	0a	-gra:
1F	-di,	.	.	.	.	.	.	1D	Au-	.	.
=126	=126	=126	=126	=126	=126	=126	=126	=126	=126	=126	=126
2r	.	0r	.	0r	.	0r	.	1F	-di,	0r	.
2D\	au-	.	.	.	.	.	.	.	.	.	.
[1F	-di	.	.	.	.	.	.	2r	.	.	.
.	.	.	.	.	.	.	.	2D/	au-	.	.
=127	=127	=127	=127	=127	=127	=127	=127	=127	=127	=127	=127
2F\]	.	0r	.	0r	.	0r	.	2F/	-di	0r	.
2E\	pre-	.	.	.	.	.	.	2G/	pre-	.	.
2D\	-can-	.	.	.	.	.	.	2A/	-can-	.	.
2C/	-tes	.	.	.	.	.	.	[2c\	-tes	.	.
=128	=128	=128	=128	=128	=128	=128	=128	=128	=128	=128	=128
2.D\	que-	0r	.	0r	.	0r	.	4c\]	.	0r	.
.	.	.	.	.	.	.	.	4B-\	.	.	.
.	.	.	.	.	.	.	.	1B-	que-	.	.
4E-i\	.	.	.	.	.	.	.	.	.	.	.
1C	-su-	.	.	.	.	.	.	.	.	.	.
.	.	.	.	.	.	.	.	2A/	-su-	.	.
=129	=129	=129	=129	=129	=129	=129	=129	=129	=129	=129	=129
0BB-	-mus	0r	.	0r	.	1d	Au-	0B-	-mus	1r	.
.	.	.	.	.	.	1f	-di,	.	.	1d	Au-
=130	=130	=130	=130	=130	=130	=130	=130	=130	=130	=130	=130
0r	.	0r	.	0r	.	2r	.	0r	.	1f	-di,
.	.	.	.	.	.	2d\	au-	.	.	.	.
.	.	.	.	.	.	[1f	-di	.	.	2r	.
.	.	.	.	.	.	.	.	.	.	2d/	au-
=131	=131	=131	=131	=131	=131	=131	=131	=131	=131	=131	=131
0r	.	0r	.	0r	.	2f\]	.	0r	.	2f/	-di
.	.	.	.	.	.	2e\	pre-	.	.	2g/	pre-
.	.	.	.	.	.	2d\	-can-	.	.	2a/	-can-
.	.	.	.	.	.	2c\	-tes	.	.	[2cc\	-tes
=132	=132	=132	=132	=132	=132	=132	=132	=132	=132	=132	=132
1r	.	0r	.	0r	.	2.d\	que-	0r	.	4cc\]	.
.	.	.	.	.	.	.	.	.	.	4b-\	.
.	.	.	.	.	.	.	.	.	.	1b-	que-
.	.	.	.	.	.	4e-i\	.	.	.	.	.
1F	Tu-	.	.	.	.	1c	-su-	.	.	.	.
.	.	.	.	.	.	.	.	.	.	2a/	-su-
=133	=133	=133	=133	=133	=133	=133	=133	=133	=133	=133	=133
1G	-os	0r	.	0r	.	1B-	-mus	0r	.	0b-	-mus
1G	Ma-	.	.	.	.	2r	.	.	.	.	.
.	.	.	.	.	.	2B-\	Tu-	.	.	.	.
=134	=134	=134	=134	=134	=134	=134	=134	=134	=134	=134	=134
1E	-ri-	0r	.	0r	.	1c	-os	0r	.	0r	.
2C/	-a	.	.	.	.	1c	Ma-	.	.	.	.
[2F\	ser-	.	.	.	.	.	.	.	.	.	.
=135	=135	=135	=135	=135	=135	=135	=135	=135	=135	=135	=135
4F\]	.	0r	.	0r	.	1A	-ri-	0r	.	0r	.
4E\	.	.	.	.	.	.	.	.	.	.	.
4D\	.	.	.	.	.	.	.	.	.	.	.
4C/	.	.	.	.	.	.	.	.	.	.	.
1D	.	.	.	.	.	2F/	-a	.	.	.	.
.	.	.	.	.	.	[2B-\	ser-	.	.	.	.
=136	=136	=136	=136	=136	=136	=136	=136	=136	=136	=136	=136
2BB-/	.	0r	.	0r	.	4B-\]	.	0r	.	0r	.
.	.	.	.	.	.	4A/	.	.	.	.	.
2C/	.	.	.	.	.	2.G/	.	.	.	.	.
1AA	-vu-	.	.	.	.	.	.	.	.	.	.
.	.	.	.	.	.	4F#i/	.	.	.	.	.
.	.	.	.	.	.	4F#i/	-vu-	.	.	.	.
.	.	.	.	.	.	4E/	.	.	.	.	.
=137	=137	=137	=137	=137	=137	=137	=137	=137	=137	=137	=137
1GG	-los,	0r	.	0r	.	0G	-los,	1d	Tu-	1r	.
2r	.	.	.	.	.	.	.	2g\	-os	1b-	Tu-
2G\	tu-	.	.	.	.	.	.	2g\	Ma-	.	.
=138	=138	=138	=138	=138	=138	=138	=138	=138	=138	=138	=138
1A	-os	0r	.	0r	.	0r	.	1e	-ri-	1cc	-os
1A	Ma-	.	.	.	.	.	.	2c\	-a	1cc	Ma-
.	.	.	.	.	.	.	.	[2f\	ser-	.	.
=139	=139	=139	=139	=139	=139	=139	=139	=139	=139	=139	=139
1F	-ri-	0r	.	0r	.	0r	.	4f\]	.	1a	-ri-
.	.	.	.	.	.	.	.	4e\	.	.	.
.	.	.	.	.	.	.	.	4d\	.	.	.
.	.	.	.	.	.	.	.	4c\	.	.	.
2D\	-a	.	.	.	.	.	.	1d	.	2f/	-a
[2G\	ser-	.	.	.	.	.	.	.	.	[2b-\	ser-
=140	=140	=140	=140	=140	=140	=140	=140	=140	=140	=140	=140
2G\]	.	0r	.	0r	.	0r	.	2B-\	.	4b-\]	.
.	.	.	.	.	.	.	.	.	.	4a/	.
2C/	.	.	.	.	.	.	.	2c\	.	2.g/	.
1D	-vu-	.	.	.	.	.	.	1A	-vu-	.	.
.	.	.	.	.	.	.	.	.	.	4f#i/	.
.	.	.	.	.	.	.	.	.	.	4f#i/	-vu-
.	.	.	.	.	.	.	.	.	.	4e/	.
=141	=141	=141	=141	=141	=141	=141	=141	=141	=141	=141	=141
0GG	-los,	1r	.	0r	.	0r	.	2.G/	-los,	1g	-los,
.	.	.	.	.	.	.	.	4A/	.	.	.
.	.	1G	Be-	.	.	.	.	2B-\	.	2r	.
.	.	.	.	.	.	.	.	2G/	.	2g/	Be-
=142	=142	=142	=142	=142	=142	=142	=142	=142	=142	=142	=142
0r	.	1G	-a-	0r	.	2r	.	1d	.	2g/	-a-
.	.	.	.	.	.	2G/	Be-	.	.	2.b-\	-ta
.	.	[1B-	-ta	.	.	2G/	-a-	1r	.	.	.
.	.	.	.	.	.	.	.	.	.	4a/	.
.	.	.	.	.	.	[2B-\	-ta	.	.	2f/	.
=143	=143	=143	=143	=143	=143	=143	=143	=143	=143	=143	=143
0r	.	2B-\]	.	1r	.	4B-\]	.	1d	Be-	2g/	ma-
.	.	.	.	.	.	4A/	.	.	.	.	.
.	.	2A/	.	.	.	2F/	.	.	.	2a/	.
.	.	1G	ma-	1d	Be-	1G	ma-	1d	-a-	1b-	.
=144	=144	=144	=144	=144	=144	=144	=144	=144	=144	=144	=144
2r	.	0F	-ter	1d	-a-	1D	-ter,	2.f\	-ta	0a	-ter
2D\	Be-	.	.	.	.	.	.	.	.	.	.
.	.	.	.	.	.	.	.	4e\	.	.	.
2D\	-a-	.	.	[1f	-ta	2r	.	2d\	.	.	.
[2F\	-ta	.	.	.	.	[2A/	ma-	2c\	.	.	.
=145	=145	=145	=145	=145	=145	=145	=145	=145	=145	=145	=145
4F\]	.	0r	.	2f\]	.	4A/]	.	2d\	ma-	1r	.
4E\	.	.	.	.	.	4B-\	.	.	.	.	.
2C/	.	.	.	2e\	.	2c\	.	2e\	.	.	.
1D	ma-	.	.	1d	ma-	1F	ter	1f	.	2r	.
.	.	.	.	.	.	.	.	.	.	2a/	et
=146	=146	=146	=146	=146	=146	=146	=146	=146	=146	=146	=146
1AA	-ter	0r	.	0c	-ter	2r	.	[0e	-ter	1cc	in-
.	.	.	.	.	.	2A/	et	.	.	.	.
2r	.	.	.	.	.	1c	in-	.	.	1cc	-nup-
2AA/	et	.	.	.	.	.	.	.	.	.	.
=147	=147	=147	=147	=147	=147	=147	=147	=147	=147	=147	=147
1C	in-	1G	et	0r	.	1c	-nup-	0e]	.	1g	-ta,
1C	-nup-	1G	in-	.	.	1G	-ta,	.	.	2r	.
.	.	.	.	.	.	.	.	.	.	2g/	et
=148	=148	=148	=148	=148	=148	=148	=148	=148	=148	=148	=148
1GG	-ta,	1G	-nup-	0r	.	2r	.	1r	.	2g/	in-
.	.	.	.	.	.	2G/	et	.	.	2.b-\	-nup-
1r	.	[1B-	-ta	.	.	2G/	in-	1d	et	.	.
.	.	.	.	.	.	.	.	.	.	4a/	.
.	.	.	.	.	.	[2B-\	-nup-	.	.	2f/	-ta
=149	=149	=149	=149	=149	=149	=149	=149	=149	=149	=149	=149
0r	.	2B-\]	.	1d	et	4B-\]	.	1d	in-	2g/	vir-
.	.	.	.	.	.	4A/	.	.	.	.	.
.	.	2A/	.	.	.	2F/	-ta	.	.	2a/	.
.	.	1G	vir-	1d	in-	1G	vir-	1d	-nup-	1b-	.
=150	=150	=150	=150	=150	=150	=150	=150	=150	=150	=150	=150
2r	.	0F	-go,	1d	-nup-	1D	-go,	2.f\	-ta	0a	-go,
2D\	et	.	.	.	.	.	.	.	.	.	.
.	.	.	.	.	.	.	.	4e\	.	.	.
2D\	in-	.	.	[1f	-ta	2r	.	2d\	.	.	.
[2F\	-nup-	.	.	.	.	[2A/	in-	2c\	.	.	.
=151	=151	=151	=151	=151	=151	=151	=151	=151	=151	=151	=151
4F\]	.	0r	.	2f\]	.	4A/]	.	2d\	vir-	0r	.
4E\	.	.	.	.	.	4B-\	-nup-	.	.	.	.
2C/	-ta	.	.	2e\	.	2c\	-ta	2e\	.	.	.
1D	vir-	.	.	1d	vir-	2.F/	vir-	1f	.	.	.
.	.	.	.	.	.	4G/	.	.	.	.	.
=152	=152	=152	=152	=152	=152	=152	=152	=152	=152	=152	=152
[0AA	-go,	0r	.	0c	-go,	2A/	-go,	0e	-go,	1r	.
.	.	.	.	.	.	4c\	Re-	.	.	.	.
.	.	.	.	.	.	4B-\	.	.	.	.	.
.	.	.	.	.	.	4A/	.	.	.	1cc	Re-
.	.	.	.	.	.	4G/	.	.	.	.	.
.	.	.	.	.	.	[2A/	.	.	.	.	.
=153	=153	=153	=153	=153	=153	=153	=153	=153	=153	=153	=153
0AA]	.	0r	.	0r	.	2A/]	.	2r	.	1cc	-pel-
.	.	.	.	.	.	4G/	.	2e\	Re-	.	.
.	.	.	.	.	.	4F/	.	.	.	.	.
.	.	.	.	.	.	2E/	-pel-	2e\	-pel-	1cc	-le
.	.	.	.	.	.	2A/	-le	2e\	-le	.	.
=154	=154	=154	=154	=154	=154	=154	=154	=154	=154	=154	=154
0r	.	0r	.	0r	.	2D/	men-	2.f\	men-	2.dd\	men-
.	.	.	.	.	.	2.B-\	.	.	.	.	.
.	.	.	.	.	.	.	.	4e\	.	4cc\	.
.	.	.	.	.	.	.	.	2d\	-tis	2b-\	-tis
.	.	.	.	.	.	4A/	.	.	.	.	.
.	.	.	.	.	.	2F/	-tis	2c\	te-	[2a/	te-
=155	=155	=155	=155	=155	=155	=155	=155	=155	=155	=155	=155
0r	.	0r	.	0r	.	2G/	te-	2.B-\	.	4a/]	.
.	.	.	.	.	.	.	.	.	.	4g/	.
.	.	.	.	.	.	2E/	-ne-	.	.	1g	.
.	.	.	.	.	.	.	.	4G/	.	.	.
.	.	.	.	.	.	1D	-bras,	2A/	.	.	.
.	.	.	.	.	.	.	.	2A/	-ne-	2f#i/	-ne-
=156	=156	=156	=156	=156	=156	=156	=156	=156	=156	=156	=156
1r	.	0r	.	0r	.	2r	.	0G	-bras,	1g	-bras,
.	.	.	.	.	.	2d\	Dis-	.	.	.	.
1G	Dis-	.	.	.	.	2G/	-rum-	.	.	1b-	Dis-
.	.	.	.	.	.	2d\	-pe	.	.	.	.
=157	=157	=157	=157	=157	=157	=157	=157	=157	=157	=157	=157
1G	-rum-	0r	.	0r	.	4G/	cor-	2r	.	1b-	-rum-
.	.	.	.	.	.	4A/	.	.	.	.	.
.	.	.	.	.	.	4B-\	.	2d\	Dis-	.	.
.	.	.	.	.	.	4c\	.	.	.	.	.
1G	-pe	.	.	.	.	2d\	.	2G/	-rum-	1b-	-pe
.	.	.	.	.	.	2G/	-dis	2d\	-pe	.	.
=158	=158	=158	=158	=158	=158	=158	=158	=158	=158	=158	=158
1.A	cor-	0r	.	0r	.	2r	.	2c\	cor-	1.cc	cor-
.	.	.	.	.	.	2.c\	gla-	4A/	-dis	.	.
.	.	.	.	.	.	.	.	4B-\	.	.	.
.	.	.	.	.	.	.	.	4c\	.	.	.
.	.	.	.	.	.	4A/	.	4d\	.	.	.
2G\	-dis	.	.	.	.	2B-\	.	[2e\	gla-	2b-\	-dis
=159	=159	=159	=159	=159	=159	=159	=159	=159	=159	=159	=159
2.F\	gla-	0r	.	0r	.	2c\	.	4e\]	.	2a/	gla-
.	.	.	.	.	.	.	.	4d\	.	.	.
.	.	.	.	.	.	2d\	.	1d	.	2f/	.
4D\	.	.	.	.	.	.	.	.	.	.	.
1E	-ci-	.	.	.	.	1G	-ci-	.	.	1g	-ci-
.	.	.	.	.	.	.	.	2c#i\	-ci-	.	.
=160	=160	=160	=160	=160	=160	=160	=160	=160	=160	=160	=160
0D	-em.	1r	.	0r	.	0A	-em.	0d	-em.	0f	-em.
.	.	1A	Glo-	.	.	.	.	.	.	.	.
=161	=161	=161	=161	=161	=161	=161	=161	=161	=161	=161	=161
1r	.	1B-	-ri-	0r	.	0r	.	0r	.	1d	Glo-
1C	Glo-	1c	-o-	.	.	.	.	.	.	1e	-ri-
=162	=162	=162	=162	=162	=162	=162	=162	=162	=162	=162	=162
2G\	-ri-	1B-	-sa	1r	.	0r	.	2r	.	1d	-o-
2D\	.	.	.	.	.	.	.	2d\	Glo-	.	.
1E	-o-	2r	.	1e	Glo-	.	.	2c\	-ri-	1g	-sa
.	.	2G/	re-	.	.	.	.	2c\	-o-	.	.
=163	=163	=163	=163	=163	=163	=163	=163	=163	=163	=163	=163
2F\	-sa	2A/	-gi-	1f	-ri-	2r	.	1d	-sa	0r	.
2BB-/	re-	1B-	.	.	.	2d\	Glo-	.	.	.	.
2E-\	-gi-	.	.	1g	-o-	2B-\	-ri-	1r	.	.	.
2E-i\	-na-	2G/	-na	.	.	2c\	-o-	.	.	.	.
=164	=164	=164	=164	=164	=164	=164	=164	=164	=164	=164	=164
1D	-mun-	1A	mun-	1f	-sa	1d	-sa	2r	.	1r	.
.	.	.	.	.	.	.	.	2A/	re-	.	.
1GG	-di,	1G	-di,	2r	.	1r	.	2B-\	-gi-	2r	.
.	.	.	.	2d\	re-	.	.	2B-\	-na-	2dd\	re-
=165	=165	=165	=165	=165	=165	=165	=165	=165	=165	=165	=165
0r	.	0r	.	2e\	-gi-	2r	.	1A	-mun-	4cc\	-gi-
.	.	.	.	.	.	.	.	.	.	4b-\	.
.	.	.	.	1f	.	2A/	re-	.	.	4a/	-na-
.	.	.	.	.	.	.	.	.	.	4g/	.
.	.	.	.	.	.	2F/	-gi-	1D	-di,	4a/	-mun-
.	.	.	.	.	.	.	.	.	.	4d/	.
.	.	.	.	2d\	-na	2B-\	.	.	.	[2dd\	.
=166	=166	=166	=166	=166	=166	=166	=166	=166	=166	=166	=166
0r	.	0r	.	1e	mun-	1A	-na-	0r	.	2dd\]	.
.	.	.	.	.	.	.	.	.	.	2cc#i\	.
.	.	.	.	1d	-di,	4D/	-mun-	.	.	1dd	-di,
.	.	.	.	.	.	4E/	.	.	.	.	.
.	.	.	.	.	.	4F/	.	.	.	.	.
.	.	.	.	.	.	4G/	.	.	.	.	.
=167	=167	=167	=167	=167	=167	=167	=167	=167	=167	=167	=167
0r	.	0r	.	0r	.	2A/	.	1D	Nos	0r	.
.	.	.	.	.	.	1B-	.	.	.	.	.
.	.	.	.	.	.	.	.	2D/	sub	.	.
.	.	.	.	.	.	4A/	.	2D/	tu-	.	.
.	.	.	.	.	.	4G/	.	.	.	.	.
=168	=168	=168	=168	=168	=168	=168	=168	=168	=168	=168	=168
1D	Nos	0r	.	0r	.	1A	-di,	2F/	-um	0r	.
.	.	.	.	.	.	.	.	2D/	prae-	.	.
2D\	sub	.	.	.	.	1r	.	2.F/	-si-	.	.
2D\	tu-	.	.	.	.	.	.	.	.	.	.
.	.	.	.	.	.	.	.	4G/	.	.	.
=169	=169	=169	=169	=169	=169	=169	=169	=169	=169	=169	=169
2F\	-um	0r	.	0r	.	1D	Nos	2A/	.	0r	.
2D\	prae-	.	.	.	.	.	.	2B-\	-di-	.	.
2.F\	-si-	.	.	.	.	2D/	sub	1A	um	.	.
.	.	.	.	.	.	2D/	tu-	.	.	.	.
4G\	.	.	.	.	.	.	.	.	.	.	.
=170	=170	=170	=170	=170	=170	=170	=170	=170	=170	=170	=170
2A\	.	0r	.	0r	.	2F/	-um	1r	.	0r	.
2B-\	-di-	.	.	.	.	2D/	prae-	.	.	.	.
1A	-di-	.	.	.	.	2.F/	-si-	2r	.	.	.
.	.	.	.	.	.	.	.	2D/	Con-	.	.
.	.	.	.	.	.	4G/	.	.	.	.	.
=171	=171	=171	=171	=171	=171	=171	=171	=171	=171	=171	=171
1D	-Con-	0r	.	0r	.	2A/	.	2F/	-fu-	0r	.
.	.	.	.	.	.	2B-\	-di-	2D/	-gi-	.	.
2D\	-fu-	.	.	.	.	2A/	-um	2.F/	-en-	.	.
2D\	-gi-	.	.	.	.	2d\	Con-	.	.	.	.
.	.	.	.	.	.	.	.	4G/	.	.	.
=172	=172	=172	=172	=172	=172	=172	=172	=172	=172	=172	=172
2.F\	-en-	0r	.	0r	.	2c\	-fu-	2A/	.	0r	.
.	.	.	.	.	.	2A/	-gi-	2.D/	.	.	.
4E\	.	.	.	.	.	.	.	.	.	.	.
4D\	.	.	.	.	.	2B-\	-en-	.	.	.	.
4C/	.	.	.	.	.	.	.	4E/	.	.	.
2D\	.	.	.	.	.	2A/	-tes	2F/	.	.	.
=173	=173	=173	=173	=173	=173	=173	=173	=173	=173	=173	=173
2BB-/	-tes	1r	.	0r	.	2B-\	pro-	2D/	-tes	1r	.
2C/	pro-	.	.	.	.	2G/	-te-	2E/	pro-	.	.
1AA	-te-	1F	in-	.	.	1A	-ge,	1C	-te-	2r	.
.	.	.	.	.	.	.	.	.	.	2a/	in-
=174	=174	=174	=174	=174	=174	=174	=174	=174	=174	=174	=174
1GG	-ge,	1G	-ter-	0r	.	1r	.	1D	-ge,	2b-\	-ter-
.	.	.	.	.	.	.	.	.	.	2g/	.
1r	.	1c	-ce-	.	.	1F	in-	2r	.	1a	-ce-
.	.	.	.	.	.	.	.	2A/	in-	.	.
=175	=175	=175	=175	=175	=175	=175	=175	=175	=175	=175	=175
0r	.	1B-	-de	1r	.	1G	-ter-	2B-\	-ter-	1g	-de
.	.	.	.	.	.	.	.	2G/	.	.	.
.	.	1A	.	1c	in-	1c	-ce-	1A	-ce-	2r	.
.	.	.	.	.	.	.	.	.	.	2a/	pro
=176	=176	=176	=176	=176	=176	=176	=176	=176	=176	=176	=176
1.GG	in-	0r	.	1d	-ter-	1.B-	-de	1G	-de	2b-\	no-
.	.	.	.	.	.	.	.	.	.	2g/	.
.	.	.	.	1g	-ce-	.	.	2r	.	1b-	.
2GG/	-ter-	.	.	.	.	4A/	.	2d\	pro	.	.
.	.	.	.	.	.	4G/	.	.	.	.	.
=177	=177	=177	=177	=177	=177	=177	=177	=177	=177	=177	=177
1D	-ce-	2r	.	1f	-de	2A/	.	1d	no-	1a	-bis
.	.	2A/	pro	.	.	2D/	pro	.	.	.	.
1AA	-de	2A/	no-	1e	.	2E/	no-	1c	.	2r	.
.	.	2A/	-bis	.	.	2C/	.	.	.	[2a/	ad
=178	=178	=178	=178	=178	=178	=178	=178	=178	=178	=178	=178
0r	.	2B-\	ad	0r	.	1G	.	1d	-bis	4a/]	.
.	.	.	.	.	.	.	.	.	.	4g/	.
.	.	2G/	do-	.	.	.	.	.	.	2.g/	do-
.	.	1A	-mi-	.	.	1D	-bis	2r	.	.	.
.	.	.	.	.	.	.	.	.	.	4f#i/	.
.	.	.	.	.	.	.	.	2d\	ad	4f#i/	-mi-
.	.	.	.	.	.	.	.	.	.	4e/	.
=179	=179	=179	=179	=179	=179	=179	=179	=179	=179	=179	=179
2r	.	0G	-num,	2r	.	1r	.	2B-\	do-	0g	-num.
2C/	pro	.	.	2e\	pro	.	.	2G/	.	.	.
2C/	no-	.	.	2e\	no-	2r	.	1c	.	.	.
2C/	-bis	.	.	2e\	-bis	2G/	ad	.	.	.	.
=180	=180	=180	=180	=180	=180	=180	=180	=180	=180	=180	=180
2D\	ad	1r	.	2f\	ad	2F/	do-	2A/	.	0r	.
2BB-/	.	.	.	2d\	do-	2G/	-mi-	2B-\	-mi-	.	.
2.C/	do-	1c	Al-	1e	-mi-	2.E/	-num.	1G	-num.	.	.
4BB-/	-mi-	.	.	.	.	4F/	.	.	.	.	.
=181	=181	=181	=181	=181	=181	=181	=181	=181	=181	=181	=181
2GG/	-num.	1B-	.	0d	-num,	1G	.	1r	.	0r	.
2G\	Al-	.	.	.	.	.	.	.	.	.	.
2F\	-le-	2A/	-le-	.	.	1r	.	1d	Al-	.	.
[2G\	-lu-	[2B-\	-lu-	.	.	.	.	.	.	.	.
=182	=182	=182	=182	=182	=182	=182	=182	=182	=182	=182	=182
4G\]	.	4B-\]	.	1r	.	2r	.	1B-	-le-	0r	.
4F\	.	4A/	.	.	.	.	.	.	.	.	.
4E\	.	4G/	.	.	.	2G/	Al-	.	.	.	.
4D\	.	4F/	.	.	.	.	.	.	.	.	.
1E	.	1G	.	1g	Al-	2G/	-le-	1c	-lu-	.	.
.	.	.	.	.	.	2C/	-lu-	.	.	.	.
=183	=183	=183	=183	=183	=183	=183	=183	=183	=183	=183	=183
1D	-ia,	1A	-ia,	1f	.	1F	-ia,	2d\	-ia,	1r	.
.	.	.	.	.	.	.	.	2A/	al-	.	.
2r	.	1r	.	2e\	-le-	1r	.	2c\	-le-	2r	.
[2D\	al-	.	.	[2f\	-lu-	.	.	[2F/	-lu-	2a/	Al-
=184	=184	=184	=184	=184	=184	=184	=184	=184	=184	=184	=184
2D\]	.	0r	.	4f\]	.	1.A	al-	4F/]	.	1dd	-le-
.	.	.	.	4e\	.	.	.	4G/	.	.	.
2D\	-le-	.	.	4d\	.	.	.	2A/	.	.	.
.	.	.	.	4c\	.	.	.	.	.	.	.
1D	-lu-	.	.	1d	.	.	.	1D	.	1dd	-lu-
.	.	.	.	.	.	2A/	-le-	.	.	.	.
=185	=185	=185	=185	=185	=185	=185	=185	=185	=185	=185	=185
0AA	-ia,	2r	.	1e	-ia,	1A	-lu-	0A	-ia,	2.cc\	.
.	.	2c\	al-	.	.	.	.	.	.	.	.
.	.	.	.	.	.	.	.	.	.	4b-\	.
.	.	2c\	-le-	1r	.	2E/	-ia,	.	.	4a/	.
.	.	.	.	.	.	.	.	.	.	4g/	.
.	.	[2c\	-lu-	.	.	[2F/	al-	.	.	[2a/	.
=186	=186	=186	=186	=186	=186	=186	=186	=186	=186	=186	=186
0r	.	4c\]	.	0r	.	2F/]	.	1r	.	4a/]	.
.	.	4B-\	.	.	.	.	.	.	.	4g/	.
.	.	4A/	.	.	.	2G/	-le-	.	.	2.g/	.
.	.	4G/	.	.	.	.	.	.	.	.	.
.	.	1A	.	.	.	1D	-lu-	1d	al-	.	.
.	.	.	.	.	.	.	.	.	.	4f#i/	.
.	.	.	.	.	.	.	.	.	.	4f#i/	.
.	.	.	.	.	.	.	.	.	.	4e/	.
=187	=187	=187	=187	=187	=187	=187	=187	=187	=187	=187	=187
1r	.	[0Gl	-ia.	2r	.	2G/	-ia,	2B-\	-le-	[0gl	-ia.
.	.	.	.	2g\	al-	2C/	al-	2c\	-lu-	.	.
[1C	al-	.	.	2g\	-le-	2E/	-le-	2G/	-ia,	.	.
.	.	.	.	[2g\	-lu-	2C/	-lu-	[2c\	al-	.	.
=188	=188	=188	=188	=188	=188	=188	=188	=188	=188	=188	=188
2C/]	.	0G_	.	4g\]	.	1G	-ia,	2c\]	.	0g_	.
.	.	.	.	4f\	.	.	.	.	.	.	.
2C/	-le-	.	.	4e\	.	.	.	2c\	-le-	.	.
.	.	.	.	4d\	.	.	.	.	.	.	.
1C	-lu-	.	.	1e	.	2r	.	1c	-lu-	.	.
.	.	.	.	.	.	[2G/	al-	.	.	.	.
=189	=189	=189	=189	=189	=189	=189	=189	=189	=189	=189	=189
0GG	-ia.	0G_	.	[0dl	-ia.	2G/]	.	[0B-l	-ia.	0g_	.
.	.	.	.	.	.	2G/	-le-	.	.	.	.
.	.	.	.	.	.	1G	-lu-	.	.	.	.
=190	=190	=190	=190	=190	=190	=190	=190	=190	=190	=190	=190
0GGl	.	0G]	.	0d]	.	0Dl	-ia.	0B-]	.	0g]	.
==	==	==	==	==	==	==	==	==	==	==	==
*-	*-	*-	*-	*-	*-	*-	*-	*-	*-	*-	*-
!!!RDF**kern: l=long note in original notation
!!!RDF**kern: i=editorial accidental
!!!RDF**kern: V=start of tuplet marker
!!!RDF**kern: Z=end of tuplet marker
!!!ENC:	Jesse Rodin; Victoria Chang 2011/05/22; JR 2012/02 text
!!!END:	2013/03/08/
!!!EED:	Jesse Rodin
!!!EEV:	2013/03/08/
!!attribution-level@Jos: 1 (secure)
!!!ONB:	Translated from MusicXML and edited on 2011/08/15/ by Craig Sapp
!!muse2ps: u^(2) @{OTL2}^C^@{COM}\n@{SCT}^i2I150v80,80,80,80,80,110c100Q16
!!muse2ps-notext: u^(2) @{OTL2}^C^@{COM}\n@{SCT}^i2I150v100,100,100,100,100,110c100Q16
!!!ONB: April 2013 Concert
